X:1
T:Agwillare
T:Agwillare
T:Anonymous
T:Public Domain - https://imslp.org/wiki/Agwillare_(Anonymous)
T:Public Domain - https://imslp.org/wiki/Agwillare_(Anonymous)
C:Anonymous
Z:Public Domain - https://imslp.org/wiki/Agwillare_(Anonymous)
%%score [ 1 2 ]
L:1/8
M:3/1
K:C
V:1 alto1 nm="Soprano"
V:2 tenor nm="Tenore"
V:1
 c8 d4 c4 A8 | z4 G4 A4 c4 B4 G4 | A8 z4 G4 F4 D4 | E8 z4 F4 G8 | A8 z4 B4 c8 | d8 z4 c4 A8 | %6
w: Ag\- wil\- la\- *||||||
 z4 G4 A4 c4 B8 | z8 c8 c4 c4 | A8 F6 G2 A6"^(♭)" B2 | c6"^(♭)" B2 A4 G6 F2 F4- | F4 E4 F8 z4 A4 | %11
w: |Ag\- wil\- la\-|re ha- * * *||* beth * stan-|
 B8 c8 A4 G2 F2 | E8 G8 F4 E2 D2 | E8 z4 F4 G8 | A8 z4 c4 B4 G4 | A8 z4 F4 G4 E4 | D8 z4 F4 A8 | %17
w: |* diff * * *|* yn lan\-|ten * * *|* this ta- *|le me *|
 G4"^(♯)" F4 E8 D4 G4- | G4 F4 G8 z4 F4 | E4 C4 D8 z4 C4 | F8 G4 E4 D8 | z4 C4 E4 F4 G8 | %22
w: |* told * closs||||
 A8 z4 G4 A4 c4 | !fermata!A16 z8 | c6 B2 A4 F4 A4 G2 F2 | E8 G4 F4 E2 D2 E4 | %26
w: ||closs * * * * * *||
 C4 F6 E2 F2 G2 A6 G2 | A2 B2 c6 B2 A2 G2 A6 G2 | F2 E2 F4 G8 E4 D4- | D4 C8 F8 E4 | F24 || %31
w: |||||
 F12 D4 E8 | z4 F4 G4 F2 G2 A4 F4 | E8 F8 z4 A4 | G4 A4 B4 c6 B2 A2 G2 | A4 G8 ^F4 G8 | %36
w: than * *|this * * * * red|* son vp|||
 z4 B4 c8 d8 | e8 d4 c6 B2 B2 A2 | c8 z4 G4 A4 G4 | A4 B4 c4 B4 A8 | G8 z4 F4 E4 C4 | %41
w: |||||
 D8 z4 C4 D4 E4 | F8 G4 A6 F2 G4 | F6 E2 E2 D2 F8 z4 | _B8 A8 G8 | F8 z4 G4 A6 F2 | %46
w: |||and hos- *|nen ze- * *|
 G4 F4 D4 E4 F8 | z4 G4 F8 E4 C4 | D8 C8 z4 A4- | A4 F4 G4 _B4 A8 | z4 G4 c8 d8 | c8 _A4 A8 G4 | %52
w: * * * * dith|* * * bstat|||||
 F8 z4 _B4 A6 F2 | G4 A6 G2 F2 E2 D4 G4- | G4 ^F4 G8 z4 F4 | E4 C4 D8 z4 C4 | F8 G4 E4 D8 | %57
w: |||||
 z4 C4 E4 F4 G8 | A8 z4 G4 A4 c4 | !fermata!A16 z8 | c6 B2 A4 G4 A4 G2 F2 | E8 G4 F4 E2 D2 E4 | %62
w: |||||
 C4 F6 E2 F2 G2 A6 G2 | A2 B2 c6 B2 A2 G2 A6 G2 | F2 E2 F4 G8 E4 D4- | D4 C8 F8 E4 | F24 |] %67
w: |||||
V:2
 z8 z8 C8 | D4 C4 A,8 G,8 | z4 C4 B,4 G,4 A,8 | z4 G,4 F,4 D,4 E,8 | z4 F,4 G,8 A,8 | %5
 z4 B,4 C8 D8 | C8 A,8 G,8- | G,8 z8 C8 | C4 C4 A,8 F,6 G,2 | A,6"^(♭)" B,2 C4"^(♭)" B,4 A,4 F,4 | %10
 G,8 F,16 | z8 A,12 B,4 | C8 B,4 A,4 F,8 | G,8 F,4 E,4 E,8 | z4 F,4 A,8 A,8 | z4 C4 D8 C8 | %16
 B,4 G,4 A,8 z4 F,4- | F,2 G,2 A,2 B,2 C8 D4 B,4 | A,8 G,8 D,8 | z4 C,4 F,8 G,4 E,4 | %20
 D,8 z4 E,4 F,4 G,4 | A,8 G,4 F,4 E,8 | z4 D,4 E,8 F,8 | !fermata!B,16 z8 | z8 C6 B,2 C6 D2 | %25
 C4 B,2 A,2 G,4 A,4 B,4 C4- | C4 A,6 G,2 F,2 E,2 F,6 E,2 | F,2 G,2 A,6 G,2 A,2 B,2 C6 B,2 | %28
 A,2 G,2 A,4 B,4 G,4 C8 | B,4 C8 A,4 G,8 | F,24 || F,12 F,4 G,8 | F,4 D,4 E,8 z4 F,4 | %33
 G,4 F,2 G,2 A,8 F,8 | E,4 F,4 G,4 A,6 G,2 A,2 B,2 | C4 G,4 A,8 G,8- | G,8 z8 B,8 | C8 z4 E4 D8 | %38
 B,16 F,4 E,4 | F,4 G,4 A,8 z4 F,4 | E,4 C,4 D,8 C,8 | z4 B,4 C4 A,4 G,8 | F,6 D,2 E,4 F,8 C,4 | %43
 F,4 G,8 F,8 z4 | G,8 F,8 _B,8 | A,8 G,8 F,8 | E,4 F,4 G,8 F,8 | z8 A,8 C8 | C8 F,8 z8 | %49
 z4 A,4"^(♭)" B,8 C8 | G,4 B,4 A,8 z4 G,4 | C8 D8 C8 | z4 A,4 G,8 F,8 | z4 A,6 B,2 C4 D4 B,4 | %54
 A,8 G,8 D,8- | D,4 C,4 F,8 G,4 E,4 | D,8 z4 E,4 F,4 G,4 | A,8 G,4 F,4 E,8 | z4 D,4 E,8 F,8 | %59
 !fermata!B,16 z8 | z8 C6 B,2 C6 D2 | C4 B,2 A,2 G,4 A,4 B,4 C4- | C4 A,6 G,2 F,2 E,2 F,6 E,2 | %63
 F,2 G,2 A,6 F,2 A,2 B,2 C6 B,2 | A,2 G,2 A,4 B,4 G,4 C8 | B,4 C8 A,4 G,8 | F,24 |] %67

